!!!SOCIAL_FUNCTION:	songs of the sun dance
!!!PDT:	1922
!!!OTL: No_20_Sun_Dance_Song_(c).krn
!!!REG: Southwest
!!!LANG: Non-Tone
!!!LING_GROUP: Uto-Aztecan
**kern	**kern
*staff2	*staff1
=1-	=1-
*clefF4	*clefF4
*k[]	*k[]
*M2/4	*M2/4
4GG/	4e\
4GG/	4d\
=2	=2
4GG/	8e\L
.	8d\J
4GG/	8A\L
.	8E\J
=3	=3
4GG/	4e\
4GG/	4d\
=4	=4
2r	8e\L
.	8d\J
.	8A\L
.	8E\J
=5||	=5||
*M3/4	*M3/4
2.r	16A\LK
.	8E\
.	16D\Jk
.	2D\
=6||	=6||
*M2/4	*M2/4
2r	8c\L
.	16d\L
.	16A\JJ
.	16c\LL
.	16G\J
.	8F\J
=7	=7
2r	4D\
.	8F\L
.	8D\J
=8	=8
2r	4AA/
.	8D/L
.	8C/J
=9	=9
2r	8AA/L
.	16C/L
.	16AA/JJ
.	4AA/
=10	=10
2r	2AA/
==	==
*-	*-
